X: 1
P: Can-Can Jig ("Breastplate"delay)
R: jig
Z: 1998 by John Chambers <jc@trillian.mit.edu>
M: 6/8
L: 1/8
K: G
[| "G"G3 G3 | "D7"A2c B2A | "G"d3 d3 | d2e B2c | "D7"A3 A3 | A2c B2A |1 "G"G2g f2e | "D7"d2c B2A :|2 "G"G2d "D7"A2B | "G"G3 z3 |]
